icons/sweating.svg

<svg width="48" height="48" viewBox="0 0 48 48" fill="none" xmlns="http://www.w3.org/2000/svg">
<path d="M24 40C28.1465 40 31.9246 38.4227 34.767 35.8353C35.4089 36.2147 36.1321 36.4646 36.9031 36.5503C33.6328 39.9119 29.0603 42 24 42C20.3879 42 17.0242 40.936 14.2054 39.1044C14.6911 38.6479 15.0971 38.1029 15.3994 37.4942C17.8832 39.0806 20.8342 40 24 40Z" fill="black"/>
<path d="M42 24C42 24.8806 41.9368 25.7464 41.8146 26.5931C41.2816 25.5509 40.631 24.588 39.9983 23.7653C39.8728 15.0369 32.7582 8 24 8C15.1634 8 8 15.1634 8 24C8 25.1411 8.11946 26.2544 8.34656 27.3279C7.84761 27.9454 7.32113 28.6605 6.83719 29.4417C6.29336 27.7249 6 25.8967 6 24C6 14.0589 14.0589 6 24 6C33.9411 6 42 14.0589 42 24Z" fill="black"/>
<path d="M14.8073 22.2328C14.1242 21.7954 13.6237 21.0879 13.7428 20.3502C13.7667 20.2025 13.8554 20.0732 13.9847 19.9979C14.114 19.9225 14.2702 19.909 14.4105 19.9611C16.2287 20.6362 18.2567 20.2174 20.0526 18.5127C20.1764 18.3951 20.3517 18.3489 20.5174 18.39C20.6831 18.4312 20.8163 18.5541 20.8707 18.7159C21.1024 19.4047 20.8948 20.3341 20.3905 21.0976C19.8685 21.8878 18.983 22.5791 17.737 22.763C16.5386 22.9399 15.521 22.69 14.8073 22.2328Z" fill="black"/>
<path d="M32.7542 22.2328C33.4373 21.7954 33.9377 21.0879 33.8187 20.3502C33.7948 20.2025 33.7061 20.0732 33.5768 19.9979C33.4475 19.9225 33.2913 19.909 33.151 19.9611C31.3327 20.6362 29.3048 20.2174 27.5089 18.5127C27.3851 18.3951 27.2098 18.3489 27.0441 18.39C26.8784 18.4312 26.7452 18.5541 26.6907 18.7159C26.459 19.4047 26.6666 20.3341 27.171 21.0976C27.693 21.8878 28.5785 22.5791 29.8244 22.763C31.0229 22.9399 32.0404 22.69 32.7542 22.2328Z" fill="black"/>
<path d="M37.5 34C39.433 34 41 32.5348 41 30.7273C41 27.8636 37.5 25 37.5 25C37.5 25 34 27.8636 34 30.7273C34 32.5348 35.567 34 37.5 34Z" fill="black"/>
<path d="M14 34.7273C14 36.5348 12.433 38 10.5 38C8.567 38 7 36.5348 7 34.7273C7 31.8636 10.5 29 10.5 29C10.5 29 14 31.8636 14 34.7273Z" fill="black"/>
<path fill-rule="evenodd" clip-rule="evenodd" d="M31.4065 33C30.0305 29.4383 27.2304 27 24 27C20.7695 27 17.9694 29.4383 16.5935 33C16.2061 34.0028 17.0133 35 18.0883 35L29.9116 35C30.9866 35 31.7939 34.0028 31.4065 33ZM24 29C25.9601 29 27.9921 30.3863 29.2317 33L18.7682 33C20.0078 30.3863 22.0399 29 24 29Z" fill="black"/>
</svg>

<svg
  xmlns="http://www.w3.org/2000/svg"
  width="24"
  height="24"
  viewBox="0 0 24 24"
  fill="none"
  stroke="currentColor"
  stroke-width="2"
  stroke-linecap="round"
  stroke-linejoin="round"
>
  <path d="M24 40c4.147 0 7.925-1.577 10.767-4.165.642.38 1.365.63 2.136.715A17.95 17.95 0 0 1 24 42a17.9 17.9 0 0 1-9.795-2.896 5.7 5.7 0 0 0 1.194-1.61A15.93 15.93 0 0 0 24 40" />
  <path d="M42 24q-.001 1.321-.185 2.593a18.6 18.6 0 0 0-1.817-2.828C39.873 15.037 32.758 8 24 8 15.163 8 8 15.163 8 24c0 1.141.12 2.254.347 3.328a21 21 0 0 0-1.51 2.114A18 18 0 0 1 6 24c0-9.941 8.059-18 18-18s18 8.059 18 18" />
  <path d="M14.807 22.233c-.683-.438-1.183-1.145-1.064-1.883a.5.5 0 0 1 .668-.389c1.818.675 3.846.256 5.642-1.448a.5.5 0 0 1 .818.203c.231.689.024 1.618-.48 2.382a3.8 3.8 0 0 1-2.654 1.665c-1.198.177-2.216-.073-2.93-.53" />
  <path d="M32.754 22.233c.683-.438 1.184-1.145 1.065-1.883a.5.5 0 0 0-.668-.389c-1.818.675-3.846.256-5.642-1.448a.5.5 0 0 0-.818.203c-.232.689-.024 1.618.48 2.382a3.8 3.8 0 0 0 2.653 1.665c1.199.177 2.216-.073 2.93-.53" />
  <path d="M37.5 34c1.933 0 3.5-1.465 3.5-3.273C41 27.864 37.5 25 37.5 25S34 27.864 34 30.727C34 32.535 35.567 34 37.5 34" />
  <path d="M14 34.727C14 36.535 12.433 38 10.5 38S7 36.535 7 34.727C7 31.864 10.5 29 10.5 29s3.5 2.864 3.5 5.727" />
  <path
    fill-rule="evenodd"
    d="M31.407 33C30.03 29.438 27.23 27 24 27s-6.03 2.438-7.407 6c-.387 1.003.42 2 1.495 2h11.824c1.075 0 1.882-.997 1.495-2M24 29c1.96 0 3.992 1.386 5.232 4H18.768c1.24-2.614 3.272-4 5.232-4"
    clip-rule="evenodd"
  />
</svg>
